X:1
T:[ID 1-141a]
T:[ID 1-141a]
T:Bezeichnung standardisiert: Menuett Menuet In dieser Quelle auch als: Menuetto
T:Urheber unbekannt Erstbeleg: vor 1767 (Datum in der schriftlichen Quelle) Datum in der hier transkribierten schriftlichen Quelle: 1799
C:Urheber unbekannt
C:Erstbeleg: vor 1767 (Datum in der schriftlichen Quelle)
C:Datum in der hier transkribierten schriftlichen Quelle: 1799
%%score 1 2
L:1/8
M:3/4
K:D
V:1 treble nm="Primo"
V:2 treble nm="Secondo"
V:1
 D2 D2 D2 | A3 F D2 | E2 F2 G2 | A3 F D2 | E2 F2 G2 | A2 a^gae | afedcB |{B} A6 :: a2 a2 a2 | %9
 b2 ba b2 | gecefg | a3 g f2 | ABcdef | gecA d2 | (3BAG F2 E2 |{E} D4 x2 :| %16
V:2
 !fermata!D2 D2 D2 | F3 E D2 | C2 D2 E2 | F3 E D2 | C2 D2 E2 | F2 cBcA | fdcBAB |{B} c6 :: %8
 f2 f2 f2 | g2 gf g2 | ecAcda | f3 e2 d | AGABcd | ecAE F2 | (3GFE D2 E2 |{E} F6 :| %16

